X: 36466
T: Secret Victory
R: jig
M: 6/8
K: Aminor
EGB|cc/c/c BB/B/B|AGE DCB,||
|:gaa age|deg AA/A/A|Aee edc|cde AA/A/A
GG/G/G Gdd|dcd ecA|AGA cDd|1 Dcd egg:|2 Dcd ecA||
|:dcB AA/A/A|cDd DcB|Aa/a/a age|ged edc|
dcB AA/A/A|cDd DcB|Aa/a/a age|dcB A3:|

